static/images/onboarding/right-arrow.svg

<svg width="24" height="24" viewBox="0 0 24 24" fill="none" xmlns="http://www.w3.org/2000/svg">
<path fill-rule="evenodd" clip-rule="evenodd" d="M20.3941 12.7842L15.1843 17.9939C14.7563 18.3971 14.1557 18.505 13.6397 18.281C13.1237 18.0586 12.8051 17.5675 12.8051 16.9984V15.0224L5.55458 14.0153C4.44461 13.8709 3.6001 12.9053 3.6001 11.7688C3.6001 11.6709 3.60673 11.5713 3.61835 11.4734C3.77929 10.4481 4.579 9.65666 5.56288 9.53223L12.8051 8.49857V6.60879C12.8051 6.03306 13.1436 5.52039 13.6662 5.30304C14.1922 5.08569 14.7745 5.20349 15.1843 5.6133L20.3941 10.8231C20.6513 11.0819 20.7939 11.4303 20.7939 11.8036C20.7939 12.1769 20.6513 12.5253 20.3941 12.7842Z" fill="white"/>
</svg>

<svg width="24" height="24" fill="none" xmlns="http://www.w3.org/2000/svg"><path fill-rule="evenodd" clip-rule="evenodd" d="m20.394 12.784-5.21 5.21a1.419 1.419 0 0 1-1.544.287 1.372 1.372 0 0 1-.835-1.283v-1.976l-7.25-1.007a2.265 2.265 0 0 1-1.937-2.542c.161-1.025.961-1.816 1.945-1.94l7.242-1.034v-1.89c0-.576.339-1.089.861-1.306a1.374 1.374 0 0 1 1.518.31l5.21 5.21c.257.259.4.607.4.98 0 .374-.143.722-.4.981Z" fill="#fff"/></svg>
